usr/share/icons/biglinux-icons-material/scalable/apps/crystal-picnic.svg

<svg width="64" height="64" viewBox="0 0 16.933 16.933" xmlns="http://www.w3.org/2000/svg"><circle cx="8.466" cy="8.46" r="7.144" fill="#f2f2f2" style="paint-order:stroke markers fill"/><g stroke-width=".8"><path fill="#e9e9f8" d="M7.541 6.746h1.654v2.646H7.54z"/><path d="M6.218 5.423v.662h.662v-.662zm0 .662h-.661v.661h.661zm-.661.661h-.662v2.646h.662zm0 2.646v.661h.661v-.661zm.661.661v.662h.662v-.662zm0 .662h-.661v.661h.661zm-.661.661h-.662v.662h.662zm4.3-5.953v.662h.66v-.662zm.66.662v.661h.662v-.661zm.662.661V8.73H8.202v.662h3.97V8.73h-.332V6.746zm.992 2.646v1.323h.662V9.392zm0 1.323H8.202v.661h1.323v.662h1.323v-.662h1.323zm-3.969 0V9.392h-.661v1.323z" fill="#351135"/><path d="M6.88 4.1v.662h-.662v.661h.662v.662h2.976V4.762h-.661V4.1z" fill="#684fc9"/><path fill="#e9e9f8" d="M7.21 4.762h1.985v.661H7.21z"/><path d="M6.218 6.085v.661h.662v-.661zm0 .661h-.661v2.646h.661v.661h.662v.662h-.662v.661h1.654v.662h1.653v-.662H8.202v-.661h-.661V9.06H6.88V8.4h-.662zm1.984 3.969h3.97v-.662H9.194v-.661h-.993v.661zm-1.984.661h-.661v.662h.661zm3.638-5.291v.661h.661v-.661z" fill="#996000"/><path d="M6.88 6.085v.661h-.662V8.4h.662v.661h.661V6.746h1.654V8.73h.661V6.085h-.661zm-.662 5.291v.662h1.654v-.662z" fill="#f8c123"/><path fill="#f88107" d="M9.195 9.392h2.976v.661H9.195z"/><path fill="#684fc9" d="M8.533 7.077h.662V8.4h-.662z"/><path fill="#e9e9f8" d="M9.856 6.746h1.323V8.73H9.856z"/><path fill="#684fc9" d="M9.856 7.077h.661V8.4h-.66z"/></g></svg>

<?xml version="1.0" encoding="UTF-8" standalone="no"?>
<svg
   width="24"
   height="24"
   viewBox="0 0 24 24"
   fill="none"
   version="1.1"
   id="svg154"
   sodipodi:docname="crystal-picnic.svg"
   inkscape:version="1.2.2 (b0a8486541, 2022-12-01)"
   xmlns:inkscape="http://www.inkscape.org/namespaces/inkscape"
   xmlns:sodipodi="http://sodipodi.sourceforge.net/DTD/sodipodi-0.dtd"
   xmlns:xlink="http://www.w3.org/1999/xlink"
   xmlns="http://www.w3.org/2000/svg"
   xmlns:svg="http://www.w3.org/2000/svg"
   xmlns:sketch="http://www.bohemiancoding.com/sketch/ns">
  <sodipodi:namedview
     id="namedview156"
     pagecolor="#ffffff"
     bordercolor="#000000"
     borderopacity="1"
     inkscape:showpageshadow="0"
     inkscape:pageopacity="1"
     inkscape:pagecheckerboard="false"
     inkscape:deskcolor="#ffffff"
     showgrid="true"
     inkscape:zoom="45.254834"
     inkscape:cx="11.777747"
     inkscape:cy="13.932213"
     inkscape:window-width="1920"
     inkscape:window-height="1052"
     inkscape:window-x="0"
     inkscape:window-y="0"
     inkscape:window-maximized="1"
     inkscape:current-layer="svg154"
     showguides="true"
     guidecolor="#ff0000"
     guideopacity="1"
     inkscape:lockguides="true"
     showborder="true"
     borderlayer="true">
    <inkscape:grid
       type="xygrid"
       id="grid356"
       color="#000000"
       opacity="0.10196078"
       empcolor="#000000"
       empopacity="0.10196078"
       snapvisiblegridlinesonly="true"
       enabled="true"
       visible="true"
       dotted="false" />
    <sodipodi:guide
       position="4,12"
       orientation="-1,0"
       id="guide764"
       inkscape:locked="true"
       inkscape:label="left-circle"
       inkscape:color="rgb(255,0,0)" />
    <sodipodi:guide
       position="5,12"
       orientation="-1,0"
       id="guide2218"
       inkscape:locked="true"
       inkscape:label="left-square"
       inkscape:color="rgb(255,0,0)" />
    <sodipodi:guide
       position="12,20"
       orientation="0,1"
       id="guide2220"
       inkscape:locked="true"
       inkscape:label="top-circle"
       inkscape:color="rgb(255,0,0)" />
    <sodipodi:guide
       position="12,5"
       orientation="0,1"
       id="guide2222"
       inkscape:locked="true"
       inkscape:label="bottom-square"
       inkscape:color="rgb(255,0,0)" />
    <sodipodi:guide
       position="12,4"
       orientation="0,1"
       id="guide2224"
       inkscape:locked="true"
       inkscape:label="bottom-circle"
       inkscape:color="rgb(255,0,0)" />
    <sodipodi:guide
       position="19,12"
       orientation="-1,0"
       id="guide2226"
       inkscape:locked="true"
       inkscape:label="right-square"
       inkscape:color="rgb(255,0,0)" />
    <sodipodi:guide
       position="20,12"
       orientation="-1,0"
       id="guide2228"
       inkscape:locked="true"
       inkscape:label="right-circle"
       inkscape:color="rgb(255,0,0)" />
    <sodipodi:guide
       position="12,19"
       orientation="0,1"
       id="guide2230"
       inkscape:locked="true"
       inkscape:label="top-square"
       inkscape:color="rgb(255,0,0)" />
    <sodipodi:guide
       position="12,12"
       orientation="1,0"
       id="guide765"
       inkscape:locked="true" />
    <sodipodi:guide
       position="12,12"
       orientation="0,-1"
       id="guide767"
       inkscape:locked="true" />
    <sodipodi:guide
       position="12,12"
       orientation="0.70710678,0.70710678"
       id="guide2266"
       inkscape:locked="true"
       inkscape:label=""
       inkscape:color="rgb(255,0,0)" />
    <sodipodi:guide
       position="12,12"
       orientation="-0.70710678,0.70710678"
       id="guide2994"
       inkscape:locked="true"
       inkscape:label=""
       inkscape:color="rgb(255,0,0)" />
    <sodipodi:guide
       position="3,12"
       orientation="-1,0"
       id="guide131543"
       inkscape:locked="true"
       inkscape:label="left-horizontal"
       inkscape:color="rgb(255,0,0)" />
    <sodipodi:guide
       position="12,21"
       orientation="0,1"
       id="guide131545"
       inkscape:locked="true"
       inkscape:label="top-vertical"
       inkscape:color="rgb(255,0,0)" />
    <sodipodi:guide
       position="21,12"
       orientation="-1,0"
       id="guide131547"
       inkscape:locked="true"
       inkscape:label="right-horizontal"
       inkscape:color="rgb(255,0,0)" />
    <sodipodi:guide
       position="12,3"
       orientation="0,1"
       id="guide131549"
       inkscape:locked="true"
       inkscape:label="bottom-vertical"
       inkscape:color="rgb(255,0,0)" />
  </sodipodi:namedview>
  <defs
     id="defs152">
    <radialGradient
       id="radialGradient66380"
       cx="0"
       cy="0"
       r="1"
       gradientUnits="userSpaceOnUse"
       gradientTransform="translate(12 1) rotate(90) scale(22)">
      <stop
         stop-color="#8FC8FF"
         id="stop66376"
         offset="0"
         style="stop-color:#68a8f5;stop-opacity:1;" />
      <stop
         offset="1"
         stop-color="#0056A8"
         id="stop66378"
         style="stop-color:#cccccc;stop-opacity:1;" />
    </radialGradient>
    <radialGradient
       id="paint0_radial_29_23"
       cx="0"
       cy="0"
       r="1"
       gradientUnits="userSpaceOnUse"
       gradientTransform="translate(12 1) rotate(90) scale(22)">
      <stop
         stop-color="#8FC8FF"
         id="stop147"
         offset="0"
         style="stop-color:#f6f6f6;stop-opacity:1;" />
      <stop
         offset="1"
         stop-color="#0056A8"
         id="stop149"
         style="stop-color:#cfcfcf;stop-opacity:1;" />
    </radialGradient>
    <radialGradient
       id="paint0_radial_10_2"
       cx="0"
       cy="0"
       r="1"
       gradientUnits="userSpaceOnUse"
       gradientTransform="matrix(-10.999959,21.999967,-21.999967,-10.999959,17.5,1)"
       xlink:href="#paint0_radial_29_23">
      <stop
         stop-color="#777777"
         id="stop2847" />
      <stop
         offset="1"
         stop-color="#222222"
         id="stop2849" />
    </radialGradient>
    <radialGradient
       fx="0"
       fy="0"
       cx="0"
       cy="0"
       r="1"
       gradientUnits="userSpaceOnUse"
       gradientTransform="matrix(0,16.5,-16.5,0,8.999996,0.750012)"
       spreadMethod="pad"
       id="radialGradient3666-6">
      <stop
         style="stop-color:#ffffff;stop-opacity:1;"
         offset="0"
         id="stop3662-7" />
      <stop
         style="stop-color:#6a7cf1;stop-opacity:1;"
         offset="1"
         id="stop3664-5" />
    </radialGradient>
    <linearGradient
       id="a"
       x2="0"
       y1="1"
       y2="47"
       gradientTransform="matrix(1.1739,0,0,1.1739,3.826,3.826)"
       gradientUnits="userSpaceOnUse">
      <stop
         stop-color="#9584f4"
         offset="0"
         id="stop76422" />
      <stop
         stop-color="#8471f2"
         offset="1"
         id="stop76424" />
    </linearGradient>
    <linearGradient
       id="a-5"
       x1="7.9000001"
       x2="56.169998"
       y1="19.867001"
       y2="19.867001"
       gradientUnits="userSpaceOnUse">
      <stop
         stop-color="#fff"
         stop-opacity=".454"
         offset="0"
         id="stop101157" />
      <stop
         stop-color="#fff"
         stop-opacity=".276"
         offset="1"
         id="stop101159" />
    </linearGradient>
    <clipPath
       id="a-3">
      <circle
         cx="8.467"
         cy="288.53"
         r="6.8790002"
         fill="#d86eb0"
         stroke-opacity="0.039"
         stroke-width="0.491"
         style="paint-order:stroke markers fill"
         id="circle105957" />
    </clipPath>
    <filter
       id="a-6"
       x="-0.10481395"
       y="-0.11112434"
       width="1.2096279"
       height="1.2222487"
       color-interpolation-filters="sRGB">
      <feGaussianBlur
         stdDeviation=".392"
         id="feGaussianBlur146622" />
    </filter>
    <filter
       id="b"
       x="-0.069428573"
       y="-0.24300001"
       width="1.1388571"
       height="1.486"
       color-interpolation-filters="sRGB">
      <feGaussianBlur
         stdDeviation="1.215"
         id="feGaussianBlur163335" />
    </filter>
    <linearGradient
       id="c"
       x2="0"
       y1="28"
       y2="20"
       gradientTransform="matrix(3.4116249,0,0,3.4116249,-49.878996,-49.878996)"
       gradientUnits="userSpaceOnUse">
      <stop
         stop-color="#5c431c"
         offset="0"
         id="stop163330"
         style="stop-color:#010100;stop-opacity:1;" />
      <stop
         stop-color="#6b4e21"
         offset="1"
         id="stop163332" />
    </linearGradient>
  </defs>
  <path
     d="M 50,5 C 9.0909092,5 5,25.454546 5,50 5,82.727274 17.272728,95 50,95 82.727274,95 95,82.727274 95,50 95,25.454546 90.909093,5 50,5 Z"
     sketch:type="MSShapeGroup"
     id="path6"
     style="font-variation-settings:normal;display:inline;opacity:1;vector-effect:none;fill:#f2f2f2;fill-opacity:1;stroke-width:4.56656;stroke-linecap:butt;stroke-linejoin:miter;stroke-miterlimit:4;stroke-dasharray:none;stroke-dashoffset:0;stroke-opacity:1;-inkscape-stroke:none;stop-color:#000000;stop-opacity:1"
     sodipodi:nodetypes="sssss"
     inkscape:label="Shape"
     transform="matrix(0.24444444,0,0,0.24444444,-0.22222222,-0.22222222)" />
  <g
     id="g177519"
     transform="matrix(1.7095765,0,0,1.7095765,-2.9389956,-2.0054876)">
    <g
       stroke-width="0.8"
       id="g177019">
      <path
         fill="#e9e9f8"
         d="M 7.541,6.746 H 9.195 V 9.392 H 7.54 Z"
         id="path176999" />
      <path
         d="M 6.218,5.423 V 6.085 H 6.88 V 5.423 Z m 0,0.662 H 5.557 V 6.746 H 6.218 Z M 5.557,6.746 H 4.895 v 2.646 h 0.662 z m 0,2.646 v 0.661 H 6.218 V 9.392 Z m 0.661,0.661 v 0.662 H 6.88 v -0.662 z m 0,0.662 H 5.557 v 0.661 H 6.218 Z M 5.557,11.376 H 4.895 v 0.662 h 0.662 z m 4.3,-5.953 v 0.662 h 0.66 V 5.423 Z m 0.66,0.662 v 0.661 h 0.662 V 6.085 Z m 0.662,0.661 V 8.73 H 8.202 v 0.662 h 3.97 V 8.73 H 11.84 V 6.746 Z m 0.992,2.646 v 1.323 h 0.662 V 9.392 Z m 0,1.323 H 8.202 v 0.661 h 1.323 v 0.662 h 1.323 v -0.662 h 1.323 z m -3.969,0 V 9.392 H 7.541 v 1.323 z"
         fill="#351135"
         id="path177001" />
      <path
         d="M 6.88,4.1 V 4.762 H 6.218 V 5.423 H 6.88 V 6.085 H 9.856 V 4.762 H 9.195 V 4.1 Z"
         fill="#684fc9"
         id="path177003" />
      <path
         fill="#e9e9f8"
         d="M 7.21,4.762 H 9.195 V 5.423 H 7.21 Z"
         id="path177005" />
      <path
         d="M 6.218,6.085 V 6.746 H 6.88 V 6.085 Z m 0,0.661 H 5.557 v 2.646 h 0.661 v 0.661 H 6.88 v 0.662 H 6.218 v 0.661 h 1.654 v 0.662 H 9.525 V 11.376 H 8.202 V 10.715 H 7.541 V 9.06 H 6.88 V 8.4 H 6.218 Z m 1.984,3.969 h 3.97 V 10.053 H 9.194 V 9.392 H 8.201 v 0.661 z M 6.218,11.376 H 5.557 v 0.662 H 6.218 Z M 9.856,6.085 v 0.661 h 0.661 V 6.085 Z"
         fill="#996000"
         id="path177007" />
      <path
         d="M 6.88,6.085 V 6.746 H 6.218 V 8.4 H 6.88 V 9.061 H 7.541 V 6.746 H 9.195 V 8.73 H 9.856 V 6.085 H 9.195 Z m -0.662,5.291 v 0.662 h 1.654 v -0.662 z"
         fill="#f8c123"
         id="path177009" />
      <path
         fill="#f88107"
         d="m 9.195,9.392 h 2.976 v 0.661 H 9.195 Z"
         id="path177011" />
      <path
         fill="#684fc9"
         d="M 8.533,7.077 H 9.195 V 8.4 H 8.533 Z"
         id="path177013" />
      <path
         fill="#e9e9f8"
         d="m 9.856,6.746 h 1.323 V 8.73 H 9.856 Z"
         id="path177015" />
      <path
         fill="#684fc9"
         d="m 9.856,7.077 h 0.661 V 8.4 h -0.66 z"
         id="path177017" />
    </g>
  </g>
</svg>
